X:1
T: The Follies of Youth
C:
R:Jig
Q:180
K:D
M:6/8
L:1/16
|:A2|d4D2 D2E2D2|D2E2D2 D2E2D2|B2G2E2 E2F2E2|E2F2E2 E2F2E2|
A2F2D2 D2E2D2|B2G2E2 E2F2E2|A2B2c2 d4B2|A2F2D2 D4:|
|:f2|e2c2A2 A2B2A2|e2c2A2 A2B2A2|f2d2B2 B2c2B2|f2d2B2 B2c2B2|
g4e2 f4d2|A2B2c2 d4B2|A2B2c2 d4B2|A2F2D2 D4:|
